X:6985
T:The Kylebrack Rambler
O:england
M:4/4
L:1/8
S:Ciaran Kelly, Moneymore, Fermanagh (Accordian)
R:Reel
D:Session tape - Derrygonelly, Fermanagh 1993
K:G
DA,~A,2 D2FE | DA,~A,2 CA,G,2 | DA,~A,2 D2DE | FGAF G2FG| Ad~d2 dcAB |\
c2Bc GECE | DCA,C D2DE | FGAF D4 :: A2GA FDD2 | d2Ad FdAd | c2Gc EcGc |\
cded cAGc | defe d2AB | c2Bc EcGc | G2ED CDEG | cAGE D4::\
ADD2 A,DD2 | d2de dcAB | c2Bd cAGE |1 CcBd cAGc :|2 CEGE D4:|


